packages/kaspersky-hexa-ui-icons/src/iconsSVGs/28x20/FlagPh.svg

<svg width="28" height="20" viewBox="0 0 28 20" fill="none" xmlns="http://www.w3.org/2000/svg">
<g clip-path="url(#clip0_5138_1600)">
<path d="M0 2C0 0.895431 0.895431 0 2 0H26C27.1046 0 28 0.895431 28 2V18C28 19.1046 27.1046 20 26 20H2C0.895431 20 0 19.1046 0 18V2Z" fill="white"/>
<mask id="mask0_5138_1600" style="mask-type:luminance" maskUnits="userSpaceOnUse" x="0" y="0" width="28" height="20">
<rect width="28" height="20" rx="2" fill="white"/>
</mask>
<g mask="url(#mask0_5138_1600)">
<path d="M26 19.5V20H2V19.5H26ZM27.5 18V2C27.5 1.17157 26.8284 0.5 26 0.5H2C1.17157 0.5 0.5 1.17157 0.5 2V18C0.5 18.8284 1.17157 19.5 2 19.5V20C0.895431 20 0 19.1046 0 18V2C2.57702e-07 0.895431 0.895431 0 2 0H26C27.1046 0 28 0.895431 28 2V18C28 19.1046 27.1046 20 26 20V19.5C26.8284 19.5 27.5 18.8284 27.5 18Z" fill="#F5F5F5"/>
<path d="M28 9.33333V20.0003H0L13.333 10.0003L12.4434 9.33333H28Z" fill="#DD1C34"/>
<path fill-rule="evenodd" clip-rule="evenodd" d="M28 9.33333H12.4444L0 0H28V9.33333Z" fill="#0D4BC3"/>
<path fill-rule="evenodd" clip-rule="evenodd" d="M2.66666 3.33334C2.66666 3.70153 2.36818 4.00001 1.99999 4.00001C1.63181 4.00001 1.33333 3.70153 1.33333 3.33334C1.33333 2.96515 1.63181 2.66667 1.99999 2.66667C2.36818 2.66667 2.66666 2.96515 2.66666 3.33334ZM10.6667 10C10.6667 10.3682 10.3682 10.6667 10 10.6667C9.63181 10.6667 9.33333 10.3682 9.33333 10C9.33333 9.63181 9.63181 9.33334 10 9.33334C10.3682 9.33334 10.6667 9.63181 10.6667 10ZM1.99999 17.3333C2.36818 17.3333 2.66666 17.0349 2.66666 16.6667C2.66666 16.2985 2.36818 16 1.99999 16C1.63181 16 1.33333 16.2985 1.33333 16.6667C1.33333 17.0349 1.63181 17.3333 1.99999 17.3333ZM4.53207 11.3266L3.39105 13.0796L3.82378 11.0332C3.75415 10.9763 3.69037 10.9125 3.63349 10.8429L1.58706 11.2756L3.34004 10.1346C3.3356 10.0903 3.33333 10.0454 3.33333 10C3.33333 9.95458 3.3356 9.90968 3.34004 9.86541L1.58706 8.72439L3.63349 9.15712C3.69037 9.08749 3.75415 9.02371 3.82378 8.96684L3.39105 6.92041L4.53207 8.67338C4.57633 8.66894 4.62123 8.66667 4.66666 8.66667C4.71209 8.66667 4.75699 8.66894 4.80125 8.67338L5.94227 6.92041L5.50954 8.96684C5.57918 9.02371 5.64295 9.08749 5.69983 9.15712L7.74626 8.72439L5.99329 9.86541C5.99772 9.90967 6 9.95457 6 10C6 10.0454 5.99772 10.0903 5.99329 10.1346L7.74626 11.2756L5.69983 10.8429C5.64295 10.9125 5.57918 10.9763 5.50954 11.0332L5.94227 13.0796L4.80125 11.3266C4.75699 11.3311 4.71209 11.3333 4.66666 11.3333C4.62123 11.3333 4.57633 11.3311 4.53207 11.3266Z" fill="#FDD64D"/>
</g>
</g>
<defs>
<clipPath id="clip0_5138_1600">
<rect width="28" height="20" fill="white"/>
</clipPath>
</defs>
</svg>

<svg xmlns="http://www.w3.org/2000/svg" width="28" height="20" fill="none" viewBox="0 0 28 20"><g clip-path="url(#a)"><path fill="#fff" d="M0 2C0 .8954.8954 0 2 0h24c1.1046 0 2 .8954 2 2v16c0 1.1046-.8954 2-2 2H2c-1.1046 0-2-.8954-2-2z"/><mask id="b" width="28" height="20" x="0" y="0" maskUnits="userSpaceOnUse" style="mask-type:luminance"><rect width="28" height="20" fill="#fff" rx="2"/></mask><g mask="url(#b)"><path fill="#f5f5f5" d="M26 19.5v.5H2v-.5zm1.5-1.5V2c0-.8284-.6716-1.5-1.5-1.5H2C1.1716.5.5 1.1716.5 2v16c0 .8284.6716 1.5 1.5 1.5v.5c-1.1046 0-2-.8954-2-2V2C0 .8954.8954 0 2 0h24c1.1046 0 2 .8954 2 2v16c0 1.1046-.8954 2-2 2v-.5c.8284 0 1.5-.6716 1.5-1.5"/><path fill="#dd1c34" d="M28 9.3333v10.667H0l13.333-10-.8896-.667z"/><path fill="#0d4bc3" fill-rule="evenodd" d="M28 9.3333H12.4444L0 0h28z" clip-rule="evenodd"/><path fill="#fdd64d" fill-rule="evenodd" d="M2.6667 3.3333a.6667.6667 0 1 1-1.3334 0 .6667.6667 0 0 1 1.3334 0m8 6.6667a.6667.6667 0 1 1-1.3334 0 .6667.6667 0 0 1 1.3334 0M2 17.3333A.6666.6666 0 1 0 2 16a.6667.6667 0 0 0 0 1.3333m2.532-6.0067-1.141 1.753.4328-2.0464a1.35 1.35 0 0 1-.1903-.1903l-2.0464.4327 1.753-1.141a1.35 1.35 0 0 1 0-.2692l-1.753-1.141 2.0464.4327a1.34 1.34 0 0 1 .1903-.1903L3.391 6.9204l1.141 1.753a1.35 1.35 0 0 1 .2691 0l1.141-1.753-.4327 2.0464a1.34 1.34 0 0 1 .1903.1903l2.0465-.4327-1.753 1.141a1.35 1.35 0 0 1 0 .2692l1.753 1.141-2.0465-.4327a1.34 1.34 0 0 1-.1903.1903l.4328 2.0464-1.141-1.753a1.33 1.33 0 0 1-.2692 0" clip-rule="evenodd"/></g></g><defs><clipPath id="a"><path fill="#fff" d="M0 0h28v20H0z"/></clipPath></defs></svg>
